.local/share/icons/Gruvbox-Plus-Dark/panel/16/network-wireless-secure-signal-ok.svg

<svg width="16" height="16" version="1.1" xmlns="http://www.w3.org/2000/svg">
  <defs>
    <style id="current-color-scheme" type="text/css">.ColorScheme-Text { color:#ebdbb2; } .ColorScheme-Highlight { color:#458588; } .ColorScheme-NeutralText { color:#fe8019; } .ColorScheme-PositiveText { color:#689d6a; } .ColorScheme-NegativeText { color:#fb4934; }</style>
  </defs>
  <path class="ColorScheme-Text" d="m8.029 2 2e-3 2e-3c-3.034 0-5.766 1.269-8.031 3.014l8.031 8.984 0.969-1.096v-1.904h1.014c0.019-1.635 1.342-3 2.986-3 0.105 0 0.204 0.02 0.307 0.031l2.693-3.047c-2.258-1.722-4.96-2.984-7.971-2.984z" fill="currentColor" opacity=".3"/>
  <path class="ColorScheme-Text" d="m8 7c-3 0-4.9 1.5-4.9 1.5l4.9 5.5 1-1.123v-1.877h1.014c0.016-1.378 0.962-2.553 2.242-2.893-0.778-0.444-2.236-1.107-4.256-1.107z" fill="currentColor"/>
  <path class="ColorScheme-Text" d="m13 9c-1.108 0-2 0.911-2 2.031v0.969h-1v4h6v-4h-1v-0.969c0-1.12-0.892-2.031-2-2.031zm0 1c0.554 0 1 0.442 1 1v1h-2v-1c0-0.558 0.446-1 1-1z" fill="currentColor"/>
</svg>

<svg xmlns="http://www.w3.org/2000/svg" width="16" height="16" version="1.1">
 <defs>
  <style id="current-color-scheme" type="text/css">
   .ColorScheme-Text { color:#ebdbb2; } .ColorScheme-Highlight { color:#458588; }
  </style>
 </defs>
 <path style="opacity:0.3;fill:currentColor" class="ColorScheme-Text" d="M 8.029,2 8.031,2.002 C 4.9968,2.002 2.2653,3.2713 0,5.0156 L 8.031,14 9,12.904 V 11 H 10.014 C 10.033,9.365 11.356,8 13,8 13.105,8 13.204,8.02 13.307,8.031 L 16,4.9844 C 13.742,3.2628 11.04,2 8.029,2 Z"/>
 <path style="fill:currentColor" class="ColorScheme-Text" d="M 8,7 C 5,7 3.0996,8.5 3.0996,8.5 L 8,14 9,12.877 V 11 H 10.014 C 10.03,9.622 10.976,8.447 12.256,8.107 11.478,7.663 10.02,7 8,7 Z"/>
 <path style="fill:currentColor" class="ColorScheme-Text" d="M 13,9 C 11.892,9 11,9.911 11,11.031 V 12 H 10 V 16 H 16 V 12 H 15 V 11.031 C 15,9.911 14.108,9 13,9 Z M 13,10 C 13.554,10 14,10.442 14,11 V 12 H 12 V 11 C 12,10.442 12.446,10 13,10 Z"/>
</svg>
